assets/02_eyes/Eye 8.svg

<svg width="400" height="180" viewBox="0 0 400 180" fill="none" xmlns="http://www.w3.org/2000/svg">
<g clip-path="url(#clip0_70_851)">
<path d="M111 134C111 84.8452 150.845 45 200 45C249.155 45 289 84.8452 289 134H111Z" fill="white"/>
<path d="M200 134C224.577 134 244.5 114.077 244.5 89.5C244.5 64.9233 224.577 45 200 45C175.423 45 155.5 64.9233 155.5 89.5C155.5 114.077 175.423 134 200 134Z" fill="#FFCF4B"/>
<path d="M225.384 116.85C225.384 116.85 199.235 92.1894 175.154 116.291C199.255 92.1894 174.595 66.0604 174.595 66.0604C196.69 88.1553 223.191 68.2741 223.191 68.2741C223.191 68.2741 203.31 94.7755 225.405 116.87L225.384 116.85Z" fill="white"/>
</g>
<defs>
<clipPath id="clip0_70_851">
<rect width="178" height="89" fill="white" transform="translate(111 45)"/>
</clipPath>
</defs>
</svg>

<svg xmlns="http://www.w3.org/2000/svg" width="400" height="180" fill="none" viewBox="0 0 400 180"><g clip-path="url(#a)"><path fill="#fff" d="M111 134c0-49.155 39.845-89 89-89s89 39.845 89 89z"/><path fill="#ffcf4b" d="M200 134c24.577 0 44.5-19.923 44.5-44.5S224.577 45 200 45s-44.5 19.923-44.5 44.5S175.423 134 200 134"/><path fill="#fff" d="M225.384 116.85s-26.149-24.66-50.23-.559c24.101-24.102-.559-50.23-.559-50.23 22.095 22.094 48.596 2.213 48.596 2.213s-19.881 26.501 2.214 48.596z"/></g><defs><clipPath id="a"><path fill="#fff" d="M111 45h178v89H111z"/></clipPath></defs></svg>
